X:309
T:Mun's the Word
C:Brent Davis
N:Transcribed by Larry Tanner
R:bluegrass
L:1/8
Q:1/4=200
M:4/4
K:C
z8 | "A"cB Ac BA GB | AG EA GE D^D | E2 [E3^C3][E3C3] | EE ^DE z2 [E2^C2] | cB Ac BA GB | 
AG EA GE D^D | "E "ED E^F ^GF GA | BA B^c d2 e2 | "A"cB Ac BA GB | AG EA GE D2 | 
"D "A,C DC EC DE | DC A,4 EG | "A"Ac AG ED CD | "E "EG ED CB, A,B, | "A"A,2 [E3G,3][^FA,] z2 | 
[G3B,3][^F3A,3] [E2G,2] | "D "A,"Chorus "C DE DC DE | DC DE DC A,G, | "A"A,2 [E3G,3][^FA,] z2 | 
[G3B,3][^F3A,3] [E2G,2] | "D "A,C DE DC DE | DC DE DC DF | "B "^F2 BA BA F2 | 
"E "ED E^F ^GF GA | BA B^c d2 e2 | "A"cB Ac BA GB | AG EA GE D^D | E2 [E3^C3][E3C3] | 
EE ^DE z2 G^G | A2 G^G A2 =G^G | "E "Ac AG ED CB, | "A"A,2 {^D}E3{D}E z2 | A,8 | 


